X: 584
M:C
L:1/8
K:A
g | aAaA (aA)eA | (aA)gA (fA)eA | dfdB cecA | FBBA GBBe |
u(c/2B/2A) eA (fA)eA | fgaf ecAc | decd BcAB | FAGB A2 A |]


